packages/dnb-ui-lib/assets/icons/photo_medium.svg

<svg width="24" height="24" viewBox="0 0 24 24" fill="none" xmlns="http://www.w3.org/2000/svg">
<path d="M5 17L8.43452 12.7797C8.92742 12.1736 9.86012 12.0505 10.5178 12.5048C10.5743 12.5438 10.6277 12.5865 10.6776 12.6325L11.6964 13.5715L14.9702 9.54865C15.4633 8.94272 16.3961 8.81992 17.0536 9.27436C17.1664 9.35233 17.2666 9.44469 17.3512 9.54865L20 12.8035M1 17H23M2.46667 23C1.65666 23 1 22.3433 1 21.5333V2.46667C1 1.65666 1.65666 1 2.46667 1H21.5333C22.3433 1 23 1.65666 23 2.46667V21.5333C23 22.3433 22.3433 23 21.5333 23H2.46667ZM7.56066 5.43934C8.14645 6.02513 8.14645 6.97488 7.56066 7.56066C6.97487 8.14645 6.02512 8.14645 5.43934 7.56066C4.85355 6.97487 4.85355 6.02512 5.43934 5.43934C6.02513 4.85355 6.97488 4.85355 7.56066 5.43934Z" stroke="black" stroke-width="1.5" stroke-linecap="round" stroke-linejoin="round"/>
</svg>

<svg width="24" height="24" viewBox="0 0 24 24" fill="none" xmlns="http://www.w3.org/2000/svg"><path d="M5 17l3.435-4.22c.492-.606 1.425-.73 2.083-.275.056.039.11.081.16.127l1.018.94 3.274-4.023c.493-.606 1.426-.73 2.084-.275.112.078.213.17.297.275L20 12.804M1 17h22M2.467 23C1.657 23 1 22.343 1 21.533V2.467C1 1.657 1.657 1 2.467 1h19.066C22.343 1 23 1.657 23 2.467v19.066c0 .81-.657 1.467-1.467 1.467H2.467zM7.56 5.44a1.5 1.5 0 11-2.122 2.12A1.5 1.5 0 017.56 5.44z" stroke="#000" stroke-width="1.5" stroke-linecap="round" stroke-linejoin="round"/></svg>
